packages/core/src/svgs/tokens/branded/LAT.svg

<svg width="24" height="24" viewBox="0 0 24 24" fill="none" xmlns="http://www.w3.org/2000/svg">
<path d="M6.56111 4.50006C5.423 4.50006 4.50049 5.38132 4.50049 6.46943V17.0001H7.00049V7.00006H17.0005V4.50006H6.56111Z" fill="#050505"/>
<path d="M7 19.5V17H17V7H19.5V17.5305C19.5 18.6182 18.5775 19.5 17.4394 19.5H7Z" fill="#050505"/>
<path d="M9.5 9.49988H14.5V14.4993H9.5V9.49988Z" fill="#F8BD00"/>
<path d="M19.5 2H22V4.49999H19.5V2Z" fill="#00B6DE"/>
<path d="M2 19.5H4.49999V22H2V19.5Z" fill="#E30065"/>
</svg>

<svg xmlns="http://www.w3.org/2000/svg" width="24" height="24" fill="none" viewBox="0 0 24 24">
    <path fill="#050505" d="M6.561 4.5c-1.138 0-2.06.881-2.06 1.97V17H7V7h10V4.5z"/>
    <path fill="#050505" d="M7 19.5V17h10V7h2.5v10.53c0 1.088-.922 1.97-2.06 1.97z"/>
    <path fill="#F8BD00" d="M9.5 9.5h5v5h-5z"/>
    <path fill="#00B6DE" d="M19.5 2H22v2.5h-2.5z"/>
    <path fill="#E30065" d="M2 19.5h2.5V22H2z"/>
</svg>
